X:1
T:Miss Curran's Lament  "(Remember there's one who will miss you.)"
M:6/8
L:1/8
Q:80
C:Arr. G. De M.H. Orpen Palmer
S:March
K:HP
AB |: \
{gcd}c3{gcd}c3/2B/2{d}A | \
{g}e3/2{GdG}c{gBd}B2A/2B/2 | \
{gcd}c3{gcd}c3/2B/2{d}A |
{g}c{d}B3AB | \
{gcd}c3{gcd}c3/2B/2{d}A | \
{g}e3/2{GdG}c{gBd}B2c/2e/2 |
{ag}a3/2e/2c{g}e3/2{GdG}B | \
{g}B3/2{d}A3 :: \
{gef}e3{g}e3/2c/2e |
{ag}a3/2e/2c{gBd}B2c/2e/2 | \
{ag}a3{ef}e3/2{GdG}c | \
{g}c{d}B3cd |
{gef}e3{g}e3/2c/2e | \
{ag}a3/2e/2c{gBd}B2c/2e/2 | \
{ag}a3/2e/2c{g}e3/2{GdG}B |
{g}B{d}A3 :|
